src/sponsor_logos/fibrauto.svg

<svg xmlns="http://www.w3.org/2000/svg" xml:space="preserve" style="fill-rule:evenodd;clip-rule:evenodd;stroke-linejoin:round;stroke-miterlimit:2" viewBox="0 0 626 216"><path d="M0-3.996h1.281c.191.042.38.093.574.123.942.149 1.901.409 2.693.989C5.46-2.151 6.112-1.11 6.545 0c-.389-.007-.779-.001-1.166-.049-.582-.062-1.169.016-1.75-.06-.595-.094-1.198-.001-1.795-.074C1.215-.266.587-.175-.032-.255c-.619-.093-1.245-.001-1.864-.074-.62-.081-1.248.008-1.867-.073-.572-.089-1.153-.002-1.726-.071-.45-.059-.903-.031-1.354-.043 1.096-.808 2.252-1.521 3.42-2.205.673-.439 1.415-.747 2.172-.982.409-.132.841-.16 1.251-.293" style="fill:#fed200;fill-rule:nonzero" transform="translate(565.91 33.302)scale(8.33333)"/><path d="M0-6.712c.128-.084.248-.209.408-.208a7 7 0 0 1 1.017.028c.637.103 1.283.009 1.922.08.661.082 1.332-.013 1.993.081.515.074 1.035.005 1.552.053.746.095 1.499.008 2.245.09.506.065 1.016.009 1.522.074.643.076 1.294-.021 1.936.073.534.081 1.075.001 1.611.059.658.087 1.324.01 1.984.068.068.3.105.606.18.904v1.612c-.097.327-.094.674-.158 1.008-.17 1.027-.396 2.055-.792 3.013-.085-.296-.069-.609-.125-.91-.132-.7-.377-1.382-.77-1.966-.696-1.125-1.816-1.906-3.02-2.298-1.065-.333-2.187-.369-3.29-.327a10.5 10.5 0 0 0-3.439.898A50 50 0 0 1-4.1-1.429c-.834.186-1.679.338-2.533.377-.531.006-1.062-.003-1.593.002-1.024.027-2.04-.145-3.04-.361a12.35 12.35 0 0 1-6.506-3.835c-.232-.254-.481-.503-.622-.83.551.399 1.047.881 1.632 1.229 1.815 1.196 3.963 1.725 6.084 1.827.542.085 1.085-.021 1.628-.028 1.568-.137 3.108-.55 4.568-1.163A22.3 22.3 0 0 0 0-6.712" style="fill:#fed200;fill-rule:nonzero" transform="translate(489.403 99.127)scale(8.33333)"/><path d="M0-13.015q3.1.005 6.201.001.01.564.004 1.129c-1.657.008-3.314-.01-4.97.008-.012 3.958.007 7.916-.01 11.874C.817-.003.408-.005 0 0z" style="fill:#fed200;fill-rule:nonzero" transform="translate(-.006 213.16)scale(8.33333)"/><path d="M1.876-2.398c-.29 1.221-.588 2.441-.868 3.665.287.071.575.144.868.189.319-1.207.578-2.429.884-3.64a30 30 0 0 0-.884-.214" style="fill:#fed200;fill-rule:nonzero" transform="scale(-8.33333 8.33333)rotate(76.602 -13.428 5.473)"/><path d="M0-10.869c-1.245.203-2.398.927-3.186 1.96-1.387 1.709-1.555 4.338-.525 6.285C-3.105-1.512-2.138-.617-1-.156.417.38 2.048.313 3.391-.429a5.57 5.57 0 0 0 2.166-2.243c.824-1.594.838-3.606.087-5.232C5.072-9.051 4.138-10.009 3-10.512c-.938-.439-1.994-.484-3-.357m-.023-1.184c1.35-.176 2.768.014 3.985.678.929.49 1.718 1.248 2.336 2.124 1.173 1.688 1.425 3.967.864 5.951C6.619-1.472 5.258.036 3.608.807c-.624.305-1.307.414-1.975.553H.363C-.983 1.223-2.326.727-3.351-.227c-.983-.868-1.753-2.036-2.065-3.358-.351-1.484-.275-3.099.31-4.507.899-2.12 2.886-3.706 5.083-3.961" style="fill:#656364;fill-rule:nonzero" transform="translate(559.22 203.785)scale(8.33333)"/><path d="M0-13.044c.407.003.815 0 1.222.003.002 4.342-.002 8.684.002 13.026C.801-.003.377 0-.046-.018c.016-3.983.002-7.966.007-11.949.006-.359-.028-.723.039-1.077" style="fill:#656364;fill-rule:nonzero" transform="translate(68.536 213.36)scale(8.33333)"/><path d="M0-10.648Q-.008-5.311.001.026C.882.029 1.762.025 2.643.029c.414-.011.831-.08 1.222-.232a2.18 2.18 0 0 0 1.273-1.222c.308-.768.278-1.698-.142-2.414-.376-.594-1.002-.971-1.657-1.111-.341-.087-.696-.068-1.041-.128a74 74 0 0 1-.003-1.157c.717-.018 1.488-.256 1.95-.869.462-.681.517-1.637.154-2.379-.246-.52-.75-.847-1.261-1.016-.471-.166-.974-.156-1.465-.156-.557.005-1.115-.008-1.673.007m-1.24-1.194c1.157.004 2.314-.001 3.47.002.933.05 1.917.253 2.65.905.49.399.805 1.001.93 1.635.163.781.085 1.628-.256 2.346-.236.49-.654.832-1.047 1.172.821.361 1.576 1.026 1.869 1.936.235.646.238 1.354.176 2.033-.101.852-.522 1.655-1.18 2.167-.736.599-1.684.791-2.592.839q-2.018.002-4.037 0c-.011-4.083-.001-8.166-.005-12.25-.002-.262-.006-.524.022-.785" style="fill:#656364;fill-rule:nonzero" transform="translate(109.836 203.352)scale(8.33333)"/><path d="m0-13.044 3.711-.001c1.129.002 2.32.212 3.247.936.793.609 1.301 1.587 1.384 2.616.085.89.01 1.837-.412 2.63-.443.91-1.303 1.523-2.214 1.814-.321.11-.654.169-.983.242.737 1.061 1.53 2.08 2.279 3.132.394.561.831 1.088 1.203 1.665-.526-.003-1.052.011-1.578-.009-.869-1.292-1.816-2.523-2.694-3.808a65 65 0 0 1-1.011-1.408c-.164-.234-.356-.452-.471-.721.168.008.337.016.506.007.659-.027 1.329.05 1.976-.122.724-.182 1.436-.604 1.816-1.302.326-.567.391-1.253.34-1.901-.06-.804-.476-1.587-1.132-2.012-.626-.423-1.382-.579-2.117-.571-.875.003-1.75-.011-2.624.007Q1.225-5.93 1.224-.01c-.409 0-.818.005-1.226-.006C.001-4.359-.003-8.701 0-13.044" style="fill:#656364;fill-rule:nonzero" transform="translate(178.628 213.385)scale(8.33333)"/><path d="M0-13.028q.689-.01 1.379.001c1.076 2.699 2.182 5.385 3.278 8.075A733 733 0 0 0 6.675 0c-.456.004-.913.007-1.37-.002a4412 4412 0 0 1-3.478-8.739c-.393-.97-.766-1.95-1.173-2.912-.141.255-.228.537-.338.808C-1.125-7.233-2.542-3.609-3.995-.001Q-4.646.008-5.299 0C-3.539-4.346-1.755-8.681 0-13.028" style="fill:#656364;fill-rule:nonzero" transform="translate(299.103 213.277)scale(8.33333)"/><path d="M0-13.254c.411.001.822.004 1.233.001.011 2.912 0 5.824.005 8.737.048.975.374 1.983 1.08 2.646.463.475 1.118.674 1.749.706.79.036 1.625-.221 2.177-.84.653-.724.882-1.763.884-2.736.003-2.837 0-5.674.001-8.511q.62-.005 1.24.001c.03.406.017.813.018 1.219v5.469c-.007 1.319.076 2.687-.377 3.945C7.658-1.568 6.879-.659 5.874-.288c-.337.136-.696.191-1.043.289H3.765C2.756-.092 1.759-.552 1.101-1.38.353-2.306.015-3.537-.007-4.738 0-7.577-.014-10.415 0-13.254" style="fill:#656364;fill-rule:nonzero" transform="translate(366.786 215.11)scale(8.33333)"/><path d="M0-13.035q3.448.002 6.898-.001c.009.39.006.78.005 1.169-.944.042-1.889 0-2.832.027-.002 3.947.002 7.893-.002 11.839q-.62.003-1.241 0-.002-5.935-.001-11.869c-.942.044-1.887.022-2.831.008-.003-.391-.006-.782.004-1.173" style="fill:#656364;fill-rule:nonzero" transform="translate(447.96 213.302)scale(8.33333)"/></svg>

<?xml version="1.0" encoding="UTF-8" standalone="no"?>
<!DOCTYPE svg PUBLIC "-//W3C//DTD SVG 1.1//EN" "http://www.w3.org/Graphics/SVG/1.1/DTD/svg11.dtd">
<svg width="100%" height="100%" viewBox="0 0 626 216" version="1.1" xmlns="http://www.w3.org/2000/svg" xmlns:xlink="http://www.w3.org/1999/xlink" xml:space="preserve" xmlns:serif="http://www.serif.com/" style="fill-rule:evenodd;clip-rule:evenodd;stroke-linejoin:round;stroke-miterlimit:2;">
    <g transform="matrix(1,0,0,1,-1499.13,-5092.76)">
        <g transform="matrix(8.33333,0,0,8.33333,0,-162.136)">
            <g transform="matrix(1,0,0,1,247.805,634.584)">
                <path d="M0,-3.996L1.281,-3.996C1.472,-3.954 1.661,-3.903 1.855,-3.873C2.797,-3.724 3.756,-3.464 4.548,-2.884C5.46,-2.151 6.112,-1.11 6.545,0C6.156,-0.007 5.766,-0.001 5.379,-0.049C4.797,-0.111 4.21,-0.033 3.629,-0.109C3.034,-0.203 2.431,-0.11 1.834,-0.183C1.215,-0.266 0.587,-0.175 -0.032,-0.255C-0.651,-0.348 -1.277,-0.256 -1.896,-0.329C-2.516,-0.41 -3.144,-0.321 -3.763,-0.402C-4.335,-0.491 -4.916,-0.404 -5.489,-0.473C-5.939,-0.532 -6.392,-0.504 -6.843,-0.516C-5.747,-1.324 -4.591,-2.037 -3.423,-2.721C-2.75,-3.16 -2.008,-3.468 -1.251,-3.703C-0.842,-3.835 -0.41,-3.863 0,-3.996" style="fill:rgb(254,210,0);fill-rule:nonzero;"/>
            </g>
        </g>
        <g transform="matrix(8.33333,0,0,8.33333,0,-162.136)">
            <g transform="matrix(1,0,0,1,238.624,642.483)">
                <path d="M0,-6.712C0.128,-6.796 0.248,-6.921 0.408,-6.92C0.747,-6.935 1.087,-6.925 1.425,-6.892C2.062,-6.789 2.708,-6.883 3.347,-6.812C4.008,-6.73 4.679,-6.825 5.34,-6.731C5.855,-6.657 6.375,-6.726 6.892,-6.678C7.638,-6.583 8.391,-6.67 9.137,-6.588C9.643,-6.523 10.153,-6.579 10.659,-6.514C11.302,-6.438 11.953,-6.535 12.595,-6.441C13.129,-6.36 13.67,-6.44 14.206,-6.382C14.864,-6.295 15.53,-6.372 16.19,-6.314C16.258,-6.014 16.295,-5.708 16.37,-5.41L16.37,-3.798C16.273,-3.471 16.276,-3.124 16.212,-2.79C16.042,-1.763 15.816,-0.735 15.42,0.223C15.335,-0.073 15.351,-0.386 15.295,-0.687C15.163,-1.387 14.918,-2.069 14.525,-2.653C13.829,-3.778 12.709,-4.559 11.505,-4.951C10.44,-5.284 9.318,-5.32 8.215,-5.278C7.032,-5.18 5.867,-4.873 4.776,-4.38C1.909,-3.119 -1.065,-2.127 -4.1,-1.429C-4.934,-1.243 -5.779,-1.091 -6.633,-1.052C-7.164,-1.046 -7.695,-1.055 -8.226,-1.05C-9.25,-1.023 -10.266,-1.195 -11.266,-1.411C-13.734,-1.961 -16.044,-3.301 -17.772,-5.246C-18.004,-5.5 -18.253,-5.749 -18.394,-6.076C-17.843,-5.677 -17.347,-5.195 -16.762,-4.847C-14.947,-3.651 -12.799,-3.122 -10.678,-3.02C-10.136,-2.935 -9.593,-3.041 -9.05,-3.048C-7.482,-3.185 -5.942,-3.598 -4.482,-4.211C-2.909,-4.871 -1.395,-5.698 0,-6.712" style="fill:rgb(254,210,0);fill-rule:nonzero;"/>
            </g>
        </g>
        <g transform="matrix(8.33333,0,0,8.33333,0,-162.136)">
            <g transform="matrix(1,0,0,1,179.895,656.167)">
                <path d="M0,-13.015C2.067,-13.012 4.134,-13.011 6.201,-13.014C6.208,-12.638 6.209,-12.262 6.205,-11.885C4.548,-11.877 2.891,-11.895 1.235,-11.877C1.223,-7.919 1.242,-3.961 1.225,-0.003C0.817,-0.003 0.408,-0.005 0,0L0,-13.015Z" style="fill:rgb(254,210,0);fill-rule:nonzero;"/>
            </g>
        </g>
        <g transform="matrix(8.33333,0,0,8.33333,0,-162.136)">
            <g transform="matrix(-0.231714,0.972784,0.972784,0.231714,184.888,647.855)">
                <path d="M1.876,-2.398C1.586,-1.177 1.288,0.043 1.008,1.267C1.295,1.338 1.583,1.411 1.876,1.456C2.195,0.249 2.454,-0.973 2.76,-2.184C2.466,-2.26 2.172,-2.331 1.876,-2.398" style="fill:rgb(254,210,0);fill-rule:nonzero;"/>
            </g>
        </g>
        <g transform="matrix(8.33333,0,0,8.33333,0,-162.136)">
            <g transform="matrix(1,0,0,1,247.002,655.042)">
                <path d="M0,-10.869C-1.245,-10.666 -2.398,-9.942 -3.186,-8.909C-4.573,-7.2 -4.741,-4.571 -3.711,-2.624C-3.105,-1.512 -2.138,-0.617 -1,-0.156C0.417,0.38 2.048,0.313 3.391,-0.429C4.297,-0.937 5.056,-1.728 5.557,-2.672C6.381,-4.266 6.395,-6.278 5.644,-7.904C5.072,-9.051 4.138,-10.009 3,-10.512C2.062,-10.951 1.006,-10.996 0,-10.869M-0.023,-12.053C1.327,-12.229 2.745,-12.039 3.962,-11.375C4.891,-10.885 5.68,-10.127 6.298,-9.251C7.471,-7.563 7.723,-5.284 7.162,-3.3C6.619,-1.472 5.258,0.036 3.608,0.807C2.984,1.112 2.301,1.221 1.633,1.36L0.363,1.36C-0.983,1.223 -2.326,0.727 -3.351,-0.227C-4.334,-1.095 -5.104,-2.263 -5.416,-3.585C-5.767,-5.069 -5.691,-6.684 -5.106,-8.092C-4.207,-10.212 -2.22,-11.798 -0.023,-12.053" style="fill:rgb(101,99,100);fill-rule:nonzero;"/>
            </g>
        </g>
        <g transform="matrix(8.33333,0,0,8.33333,0,-162.136)">
            <g transform="matrix(1,0,0,1,188.12,656.191)">
                <path d="M0,-13.044C0.407,-13.041 0.815,-13.044 1.222,-13.041C1.224,-8.699 1.22,-4.357 1.224,-0.015C0.801,-0.003 0.377,0 -0.046,-0.018C-0.03,-4.001 -0.044,-7.984 -0.039,-11.967C-0.033,-12.326 -0.067,-12.69 0,-13.044" style="fill:rgb(101,99,100);fill-rule:nonzero;"/>
            </g>
        </g>
        <g transform="matrix(8.33333,0,0,8.33333,0,-162.136)">
            <g transform="matrix(1,0,0,1,193.076,654.99)">
                <path d="M0,-10.648C-0.004,-7.09 -0.006,-3.532 0.001,0.026C0.882,0.029 1.762,0.025 2.643,0.029C3.057,0.018 3.474,-0.051 3.865,-0.203C4.423,-0.405 4.907,-0.848 5.138,-1.425C5.446,-2.193 5.416,-3.123 4.996,-3.839C4.62,-4.433 3.994,-4.81 3.339,-4.95C2.998,-5.037 2.643,-5.018 2.298,-5.078C2.293,-5.464 2.294,-5.85 2.295,-6.235C3.012,-6.253 3.783,-6.491 4.245,-7.104C4.707,-7.785 4.762,-8.741 4.399,-9.483C4.153,-10.003 3.649,-10.33 3.138,-10.499C2.667,-10.665 2.164,-10.655 1.673,-10.655C1.116,-10.65 0.558,-10.663 0,-10.648M-1.24,-11.842C-0.083,-11.838 1.074,-11.843 2.23,-11.84C3.163,-11.79 4.147,-11.587 4.88,-10.935C5.37,-10.536 5.685,-9.934 5.81,-9.3C5.973,-8.519 5.895,-7.672 5.554,-6.954C5.318,-6.464 4.9,-6.122 4.507,-5.782C5.328,-5.421 6.083,-4.756 6.376,-3.846C6.611,-3.2 6.614,-2.492 6.552,-1.813C6.451,-0.961 6.03,-0.158 5.372,0.354C4.636,0.953 3.688,1.145 2.78,1.193C1.434,1.195 0.089,1.194 -1.257,1.193C-1.268,-2.89 -1.258,-6.973 -1.262,-11.057C-1.264,-11.319 -1.268,-11.581 -1.24,-11.842" style="fill:rgb(101,99,100);fill-rule:nonzero;"/>
            </g>
        </g>
        <g transform="matrix(8.33333,0,0,8.33333,0,-162.136)">
            <g transform="matrix(1,0,0,1,201.331,656.194)">
                <path d="M0,-13.044C1.237,-13.045 2.474,-13.043 3.711,-13.045C4.84,-13.043 6.031,-12.833 6.958,-12.109C7.751,-11.5 8.259,-10.522 8.342,-9.493C8.427,-8.603 8.352,-7.656 7.93,-6.863C7.487,-5.953 6.627,-5.34 5.716,-5.049C5.395,-4.939 5.062,-4.88 4.733,-4.807C5.47,-3.746 6.263,-2.727 7.012,-1.675C7.406,-1.114 7.843,-0.587 8.215,-0.01C7.689,-0.013 7.163,0.001 6.637,-0.019C5.768,-1.311 4.821,-2.542 3.943,-3.827C3.602,-4.292 3.262,-4.759 2.932,-5.235C2.768,-5.469 2.576,-5.687 2.461,-5.956C2.629,-5.948 2.798,-5.94 2.967,-5.949C3.626,-5.976 4.296,-5.899 4.943,-6.071C5.667,-6.253 6.379,-6.675 6.759,-7.373C7.085,-7.94 7.15,-8.626 7.099,-9.274C7.039,-10.078 6.623,-10.861 5.967,-11.286C5.341,-11.709 4.585,-11.865 3.85,-11.857C2.975,-11.854 2.1,-11.868 1.226,-11.85C1.224,-7.903 1.226,-3.957 1.224,-0.01C0.815,-0.01 0.406,-0.005 -0.002,-0.016C0.001,-4.359 -0.003,-8.701 0,-13.044" style="fill:rgb(101,99,100);fill-rule:nonzero;"/>
            </g>
        </g>
        <g transform="matrix(8.33333,0,0,8.33333,0,-162.136)">
            <g transform="matrix(1,0,0,1,215.788,656.181)">
                <path d="M0,-13.028C0.459,-13.035 0.919,-13.035 1.379,-13.027C2.455,-10.328 3.561,-7.642 4.657,-4.952C5.325,-3.299 5.995,-1.648 6.675,-0C6.219,0.004 5.762,0.007 5.305,-0.002C4.143,-2.914 2.983,-5.826 1.827,-8.741C1.434,-9.711 1.061,-10.691 0.654,-11.653C0.513,-11.398 0.426,-11.116 0.316,-10.845C-1.125,-7.233 -2.542,-3.609 -3.995,-0.001C-4.429,0.005 -4.864,0.005 -5.299,-0C-3.539,-4.346 -1.755,-8.681 0,-13.028" style="fill:rgb(101,99,100);fill-rule:nonzero;"/>
            </g>
        </g>
        <g transform="matrix(8.33333,0,0,8.33333,0,-162.136)">
            <g transform="matrix(1,0,0,1,223.91,656.401)">
                <path d="M0,-13.254C0.411,-13.253 0.822,-13.25 1.233,-13.253C1.244,-10.341 1.233,-7.429 1.238,-4.516C1.286,-3.541 1.612,-2.533 2.318,-1.87C2.781,-1.395 3.436,-1.196 4.067,-1.164C4.857,-1.128 5.692,-1.385 6.244,-2.004C6.897,-2.728 7.126,-3.767 7.128,-4.74C7.131,-7.577 7.128,-10.414 7.129,-13.251C7.542,-13.253 7.955,-13.255 8.369,-13.25C8.399,-12.844 8.386,-12.437 8.387,-12.031L8.387,-6.562C8.38,-5.243 8.463,-3.875 8.01,-2.617C7.658,-1.568 6.879,-0.659 5.874,-0.288C5.537,-0.152 5.178,-0.097 4.831,0.001L3.765,0.001C2.756,-0.092 1.759,-0.552 1.101,-1.38C0.353,-2.306 0.015,-3.537 -0.007,-4.738C0,-7.577 -0.014,-10.415 0,-13.254" style="fill:rgb(101,99,100);fill-rule:nonzero;"/>
            </g>
        </g>
        <g transform="matrix(8.33333,0,0,8.33333,0,-162.136)">
            <g transform="matrix(1,0,0,1,233.651,656.184)">
                <path d="M0,-13.035C2.299,-13.034 4.598,-13.034 6.898,-13.036C6.907,-12.646 6.904,-12.256 6.903,-11.867C5.959,-11.825 5.014,-11.867 4.071,-11.84C4.069,-7.893 4.073,-3.947 4.069,-0.001C3.655,0.001 3.242,0.001 2.828,-0.001C2.826,-3.958 2.827,-7.914 2.827,-11.87C1.885,-11.826 0.94,-11.848 -0.004,-11.862C-0.007,-12.253 -0.01,-12.644 0,-13.035" style="fill:rgb(101,99,100);fill-rule:nonzero;"/>
            </g>
        </g>
    </g>
</svg>
